X:1
T:When We Get Home
T:When We Get Home
T:James McGranahan
T:Charles Gabriel, 1877
T:Public Domain Courtesy of the Cyber Hymnal™
T:Public Domain Courtesy of the Cyber Hymnal™
C:James McGranahan
Z:Public Domain
Z:Courtesy of the Cyber Hymnal™
%%score ( 1 2 ) ( 3 4 )
L:1/8
M:3/4
K:D
V:1 treble 
V:2 treble 
V:3 bass 
V:4 bass 
V:1
 D2 [DF]2 [DB]2 | [DA]4 [DF][DE] | D2 [DF]2 [DA]2 | [CE]4 [CE][CE] | D2 [DF]2 [FA]2 | %5
w: 1.~When we get|home from our|sor- row and|care And we|stand with the|
w: 2.~When we get|home to the|man- sions a-|bove, With the|loved ones gone|
w: 3.~When we get|home, when the|morn- ing is|come, A- nd|forth from the|
 [GB]2 [Gc]2 [^Gd]2 | [Ac]6 | [Fd]3 [Ac] [GB]2 | [FA]2 [EG]2 [DF]2 | [DF]2 [CE]2 D2 | %10
w: an- gels of|light,|Oh, what a|meet- ing in|Heav- en there’ll|
w: o- ver be-|fore,|Oh, who can|tell what a|joy that will|
w: ci- ty of|gold|An- gels of|God, com- ing|down, shall call|
 [GB]4 [DG][GB] | [FA]3 [GB] [FA]2 | [FA]2 [EG]2 [CE]2 | D6 | [CE]2 [CA]2 [DB]2 | [Ec]4 [Fd][Ec] | %16
w: be, In that|land with- out|sha- dow or|night;|Sor- row and|care, trib- u-|
w: be There, to|live and re-|joice ev- er-|more:|An- gels will|praise, the Re-|
w: home All of|those who be-|long to His|fold;|Will you be|there, bro- ther,|
 [DB]2 [Ec]2 [DB]2 | [CA]4 [Ec]2 | [Ae]3 [^Gd] [Ac]2 | [^GB]2 [Ac]2 [Bd]2 | c6 | [Fd]3 [Ac] [GB]2 | %22
w: la- tion and|pain We’ll|leave, when we|pass thro’ the|tomb;|Clouds of des-|
w: deem- er will|smile, And|loved ones we’ll|clasp by the|hand;|Free from all|
w: loved ones to|greet, Or|will you for-|ev- er be|lost?|What is thy|
 [FA]4 [EG][DF] | [DF]2 [CE]2 D2 | [DB]4 [DG][DB] | [FA]3 [GB] [FA]2 | [FA]2 [EG]2 [CE]2 | D6 || %28
w: pair, storms of|tri- al and|care, We shall|leave for that|beau- ti- ful|home.|
w: pain, far be-|yond earth- ly|stain, We shall|dwell in that|beau- ti- ful|land.|
w: choice, fleet- ing|plea- sures of|earth, Or a|home when death’s|riv- er is|crossed?|
"^Refrain" [FA]2 [GB]2 [Gc]2 | [Fd]4 [Fd]2 | [Ge]2 [Fd]2 [Ec]2 | [Fd]4 [FA]2 | [GB]4 [Gc]2 | %33
w: |||||
w: When we get|home, oh,|when we get|home, Get|home to|
w: |||||
 [Fd]4 [DF]2 | [CE]6 | D2 [DF]2 [FA]2 | [Fd]4 [Ac]2 | [GB]2 [Gc]2 [Gd]2 | [FA]4 [GB]2 | %39
w: ||||||
w: glo- ry|land,|Prais- es we’ll|sing to|Je- sus, our|king, A|
w: ||||||
 [FA]2 [DF]2 [Fd]2 | [Ec]2 [GB]2 [Gc]2 | [Fd]6 |] %42
w: |||
w: ran- somed, a|glor- i- fied|band.|
w: |||
V:2
 D2 x4 | x6 | D2 x4 | x6 | D2 x4 | x6 | x6 | x6 | x6 | x4 D2 | x6 | x6 | x6 | D6 | x6 | x6 | x6 | %17
 x6 | x6 | x6 | (A4 G2) | x6 | x6 | x4 D2 | x6 | x6 | x6 | D6 || x6 | x6 | x6 | x6 | x6 | x6 | x6 | %35
 D2 x4 | x6 | x6 | x6 | x6 | x6 | x6 |] %42
V:3
 [D,F,]2 [D,A,]2 [D,G,]2 | [D,F,]4 [D,A,][D,G,] | [D,F,]2 [D,A,]2 [F,A,]2 | A,4 [G,A,][G,A,] | %4
 [F,A,]2 [D,A,]2 [D,D]2 | [G,D]2 [E,A,]2 [E,B,]2 | A,6 | [D,A,]3 [D,A,] [D,D]2 | %8
 [D,D]2 [D,A,]2 [D,A,]2 | [D,A,]2 [E,A,]2 [F,D]2 | [G,D]4 [G,B,][G,D] | [A,D]3 [A,D] [A,D]2 | %12
 [A,,D]2 [A,,A,]2 [A,,G,]2 | [D,F,]6 | [A,,A,]2 [A,,E,]2 [A,,A,]2 | [A,,A,]4 [A,,A,][A,,A,] | %16
 [E,^G,]2 [E,A,]2 [E,G,]2 | A,4 A,2 | [A,C]3 [A,D] [A,D]2 | [E,E]2 [E,E]2 [E,E]2 | (E4 A,2) | %21
 [D,A,]3 [D,A,] [D,A,]2 | [D,D]4 [D,A,][D,A,] | [D,A,]2 [E,A,]2 [F,A,]2 | G,4 [G,B,][G,D] | %25
 [A,D]3 [A,D] [A,D]2 | [A,,D]2 [A,,A,]2 [A,,G,]2 | [D,F,]6 || [D,D]2 [G,D]2 [E,A,]2 | %29
 [D,A,]4 [D,A,]2 | [A,,A,]2 [A,,A,]2 [A,,A,]2 | [D,A,]4 [D,D]2 | [G,D]4 [E,A,]2 | [D,A,]4 [D,A,]2 | %34
 [A,,A,]6 | [D,F,]2 [D,A,]2 [D,D]2 | [D,A,]4 [F,D]2 | [G,D]2 [G,C]2 [G,,B,]2 | [D,A,]4 [D,D]2 | %39
 [D,D]2 [D,A,]2 [D,A,]2 | [A,,A,]2 [A,,A,]2 [A,,A,]2 | [D,A,]6 |] %42
V:4
 x6 | x6 | x6 | A,4 x2 | x6 | x6 | A,6 | x6 | x6 | x6 | x6 | x6 | x6 | x6 | x6 | x6 | x6 | %17
 A,4 A,2 | x6 | x6 | A,6 | x6 | x6 | x6 | G,4 x2 | x6 | x6 | x6 || x6 | x6 | x6 | x6 | x6 | x6 | %34
 x6 | x6 | x6 | x6 | x6 | x6 | x6 | x6 |] %42

